X: 213
T: Baktıkça Hüsn ü Ânına
C: Suphi Ezgi
O: Turkey
F: http://compmusic.upf.edu/node/140
N: hicaz--beste--lenkfahte--baktikca_husn_u--suphi_ezgi
N: makam= hicaz
N: form= beste
N: usul= lenkfahte = 10/4
M: 10/4
L: 1/16
K: C _7/8B ^f ^c 
Q: 1/4=92
%%MIDI tuningsystem comma53
z4 d4 e12 e4 z2e4=f2 e2d2 c2B2  | \
w:  Bak tık ça  hü   | 
c4 d4 e6=f2 e2d2 c2d2 e6d2 c2d2 e4  | 
w:  hüsn_ ü  â *  *  *  *  nı na   SAZ  | 
z4 d4 f6d2 f2g2 a4 z2g2 =f2e2 d2c2 d4  | \
w:  Hay ran  *  *  *  o lur   | 
g4 f2e2 e6d2 c2d2 e2=f2 e2d2 c2B2 {d}c3B A4  | 
w:  â şık *  la *  *  *  *  *  rın    | 
z4 G4 A6G2 A2G2 A2_1/4B2 z2=c4_2/4d2 d2c4B2  | \
w:  Hay ran  *  *  *  *  o lur   | 
e4 d2c2 c6B2 A2B2 c2d2 c2B4A2 A6z2  | 
w:  â şık *  la *  *  *  *  *  rın    | 
e2d2 c2d2 e12 e4 z2=fe d2c2 d4 e4  | \
w:  Ca *  nım  *  ya  lâ  ye  *  *  le  lel  li    | 
e2d2 c2d2 e12 c2B2 c2=fe d2c2 cBBA A4  | 
w:  Ye  *  le  *  li  ye  *  *  lel  *  *  *  lel  *  *  *  li    | 
e2d2 c2d2 e12 e4 z2=fe d2c2 d4 e4  | \
w:  Mî *  rim  *  ya  lâ  ye  *  *  le  lel  li    | 
e2d2 c2d2 e12 c2B2 c2=fe d2c2 cBBA A4  | 
w:  Ye  *  lel  *  li  ye  *  *  le  *  *  le  lel  *  *  *  li    | 
f4 f4 f12 e2f2 g2=ba g2f2 e2f2 d4  | \
w:  Ya  lâ  ya  lâ  *  *  ye  *  *  le  lel  *  li    | 
g2f2 e2d2 c12 A2B2 c2=fe d2c2 cBBA A4  | 
w:  Ye  *  lel  *  li  ye  *  *  lel  *  *  le  lel  *  *  *  li    | 
z4 G4 A6G2 A2G2 A2_1/4B2 z2=c4_2/4d2 d2c4B2  | \
w:  Hay ran  *  *  *  *  o lur   | 
e4 d2c2 c6B2 A2B2 c2d2 c2B4A2 A4 z4  | 
w:  â şık *  la *  *  *  *  *  rın    | 
z4 g4 a12 a4 z2a4_1/4b2 a2g4f2  | \
w:  Gel dik çe  hi   | 
a4 _1/4b4 a6g2 f2^3/4e2 f2g2 a6g2 f2g2 a4  | 
w:  hic rin  yâ *  *  *  *  dı ma   SAZ  | 
z4 g4 a12 a4 z2a4_1/4b2 a2g4f2  | \
w:  Gel dik çe  hic  | 
_1/4b4 a2g2 g6f2 ^3/4e2f2 g2f2 f8 g2fe f4  | 
w:  hic rin  yâ *  *  *  *  *  dı ma   SAZ  | 
z4 d4 f6d2 f2g2 a4 z2g2 =f2e2 d2c2 d4  | \
w:  Hay ran  *  *  *  o lur   | 
g4 f2e2 e6d2 c2d2 e2=f2 e2d2 c2B2 {d}c3B A4  | 
w:  â şık *  la *  *  *  *  *  rın    | 
z4 G4 A6G2 A2G2 A2_1/4B2 z2=c4_2/4d2 d2c4B2  | \
w:  Hay ran  *  *  *  *  o lur   | 
e4 d2c2 c6B2 A2B2 c2d2 c2B4A2 A6z2  | 
w:  â şık *  la *  *  *  *  *  rın    | 
e2d2 c2d2 e12 e4 z2=fe d2c2 d4 e4  | \
w:  Ca *  nım  *  ya  lâ  ye  *  *  le  lel  li    | 
e2d2 c2d2 e12 c2B2 c2=fe d2c2 cBBA A4  | 
w:  Ye  *  le  *  li  ye  *  *  lel  *  *  *  lel  *  *  *  li    | 
e2d2 c2d2 e12 e4 z2=fe d2c2 d4 e4  | \
w:  Mî *  rim  *  ya  lâ  ye  *  *  le  lel  li    | 
e2d2 c2d2 e12 c2B2 c2=fe d2c2 cBBA A4  | 
w:  Ye  *  lel  *  li  ye  *  *  le  *  *  le  lel  *  *  *  li    | 
f4 f4 f12 e2f2 g2=ba g2f2 e2f2 d4  | \
w:  Ya  lâ  ya  lâ  *  *  ye  *  *  le  lel  *  li    | 
g2f2 e2d2 c12 A2B2 c2=fe d2c2 cBBA A4  | 
w:  Ye  *  lel  *  li  ye  *  *  lel  *  *  le  lel  *  *  *  li    | 
z4 G4 A6G2 A2G2 A2_1/4B2 z2=c4_2/4d2 d2c4B2  | \
w:  Hay ran  *  *  *  *  o lur   | 
e4 d2c2 c6B2 A2B2 c2d2 c2B4A2 A4 z4  | 
w:  â şık *  la *  *  *  *  *  rın    | 
|


